images/codeigniter.svg

<svg width="68" height="80" viewBox="0 0 68 80" fill="none" xmlns="http://www.w3.org/2000/svg">
<g clip-path="url(#clip0)">
<path d="M3.44842 75.6068C2.07896 75.6068 1.6807 74.8096 1.6807 73.6148C1.6807 73.2166 1.73088 72.7675 1.79249 72.2943C2.0923 70.228 2.82467 69.046 4.59239 69.046C5.78781 69.046 6.37091 69.5808 6.37091 70.552V71.0252H7.5568C7.57014 71.0252 7.57014 70.5895 7.57014 70.4904C7.57014 69.0714 6.71074 67.7254 4.5943 67.7254C1.71818 67.7254 0.535461 69.288 0.0997241 72.3508C0.037476 72.7618 0 73.1454 0 73.5551C0 75.3603 0.710138 77.0023 3.24961 77.0023C5.1793 77.0023 6.32518 76.0616 6.99721 74.9036L5.86403 74.1408C5.12976 75.2987 4.3326 75.6068 3.44842 75.6068ZM11.2301 69.9047C8.92626 69.9047 7.93093 71.0868 7.59491 73.4395C7.5568 73.7146 7.53203 74.0004 7.53203 74.2615C7.53203 75.7802 8.24153 76.9883 10.2081 76.9883C12.5119 76.9883 13.5206 75.7554 13.8566 73.4395C13.894 73.141 13.9188 72.8672 13.9188 72.5935C13.9195 71.05 13.1852 69.9047 11.2301 69.9047ZM12.1886 73.4402C11.9396 75.1463 11.4048 75.669 10.3954 75.669C9.58686 75.669 9.18859 75.333 9.18859 74.3243C9.18859 74.0753 9.214 73.7768 9.26355 73.4402C9.51254 71.7474 10.0105 71.2246 11.0313 71.2246C11.8532 71.2246 12.2635 71.5606 12.2635 72.5814C12.2635 72.8304 12.2381 73.1169 12.1886 73.4402ZM19.7098 67.8493L19.3243 70.1347C19.2995 70.3335 19.3122 70.2674 19.3871 70.4542C19.0264 70.1804 18.3785 69.9994 17.9427 69.9994C15.8758 69.9994 14.7185 70.935 14.345 73.5494C14.2955 73.8607 14.2828 74.123 14.2828 74.384C14.2828 76.2896 15.4033 76.9997 16.9093 76.9997C17.5451 76.9997 18.1669 77.0131 18.6522 76.6028L18.7761 77.377H19.9715L21.3657 67.8493H19.7098ZM18.5271 75.3076C17.9675 75.643 17.42 75.7186 17.084 75.7186C16.175 75.7186 15.926 75.2454 15.926 74.4863C15.926 74.1998 15.9635 73.8645 16.0137 73.5024C16.2995 71.5232 16.9347 71.1738 17.7566 71.1738C18.2914 71.1738 18.7018 71.2615 19.0886 71.4736L18.5271 75.3076ZM25.0015 69.9047C22.7225 69.9047 21.6528 70.9871 21.2914 73.4395C21.2533 73.7387 21.2285 74.0252 21.2285 74.2989C21.2285 75.9796 22.0879 76.9883 23.9795 76.9883C25.4487 76.9883 26.545 76.3779 27.13 75.2574L25.8724 74.7467C25.5116 75.2943 25.0263 75.6678 24.1669 75.6678C23.2459 75.6678 22.8724 75.42 22.8724 74.5981C22.8724 74.4361 22.8851 74.2005 22.9099 74.2005H27.4038C27.4667 73.5653 27.5404 73.1162 27.5404 72.744C27.5404 71.4997 27.0678 69.9047 25.0015 69.9047ZM25.8603 72.9307H23.1214C23.3958 72.2956 23.8557 71.3123 24.8021 71.3123C25.5364 71.3123 25.8978 71.7417 25.8978 72.476C25.8972 72.6004 25.8857 72.9307 25.8603 72.9307ZM32.3316 69.7548L32.4809 68.4844H28.9695L28.8209 69.7548H29.7419L28.7466 76.1067H27.8243L27.6757 77.377H31.1863L31.3362 76.1067H30.4146L31.4099 69.7548H32.3316ZM39.466 71.6604L39.9144 70.39H38.7069L37.8361 70.5698C37.3502 70.2592 36.6902 70.026 36.0684 70.026C34.2873 70.026 32.7692 70.8861 32.7692 72.8412C32.7692 73.3893 32.968 73.8321 33.2043 74.1312C32.8315 74.3301 32.5075 74.6629 32.5075 75.112C32.5075 75.3108 32.5818 75.5147 32.7318 75.7008C31.9841 76.1499 31.5249 76.8937 31.5249 77.7645C31.5249 79.4458 33.2799 79.8047 34.6246 79.8047C36.3174 79.8047 38.3347 79.4179 38.3347 77.264C38.3347 76.5297 37.8742 75.9561 36.5422 75.7071L34.1393 75.2581C33.8656 75.2079 33.8033 75.1209 33.8033 74.9964C33.8033 74.8096 33.9164 74.7105 34.1025 74.7105L34.2645 74.7353C34.5884 74.8096 34.9619 74.8477 35.3474 74.8477C37.0783 74.8477 38.6218 74.1001 38.6218 72.1584C38.6218 71.884 38.5723 71.6985 38.4478 71.3993C38.6593 71.499 38.9337 71.661 39.0449 71.661H39.466V71.6604ZM36.043 76.8136C36.5156 76.9013 36.6769 77.0753 36.6769 77.3866C36.6769 78.3952 35.5939 78.5197 34.8101 78.5197C33.6147 78.5197 33.1669 78.2339 33.1669 77.5981C33.1669 77.0378 33.3282 76.7768 33.7023 76.3779L36.043 76.8136ZM35.5317 73.5526C34.8094 73.5526 34.4112 73.2915 34.4112 72.6684C34.4112 71.7474 34.9466 71.2119 35.8804 71.2119C36.6273 71.2119 36.9888 71.5232 36.9888 72.1323C36.9888 73.054 36.4654 73.5526 35.5317 73.5526ZM43.8888 69.9047C43.1914 69.9047 42.5695 70.2471 41.7971 70.8562L41.6853 70.39H40.3152L39.3567 77.377H41.0127L41.7349 72.0783C42.2208 71.7798 42.8179 71.346 43.3286 71.346C43.9504 71.346 44.1753 71.6464 44.1753 72.2187C44.1753 72.3559 44.1619 72.7618 44.1371 72.911L43.528 77.377H45.1839L45.7931 72.8748C45.8185 72.664 45.8433 72.3172 45.8433 72.1183C45.8439 70.9344 45.283 69.9047 43.8888 69.9047ZM48.9887 75.6265L49.0014 75.4556L49.723 70.39H46.9713L46.7979 71.6604H48.0048C47.9051 71.6604 47.8428 71.7715 47.8307 71.8719L47.3328 75.2454C47.308 75.408 47.2959 75.7459 47.2959 75.8818C47.2959 76.7533 47.7685 77.377 48.7391 77.377H49.5858L49.7725 76.1067H49.2377C49.0503 76.1067 48.9887 75.7757 48.9887 75.6265ZM50.059 67.8493H48.4405C48.3408 67.8493 48.3408 67.4828 48.3287 67.6073L48.1039 69.3972C48.0912 69.5096 48.0912 69.7548 48.1909 69.7548H49.81C49.9097 69.7548 49.9097 69.3197 49.9218 69.2066L50.1466 67.8251C50.1593 67.7006 50.1593 67.8493 50.059 67.8493ZM53.4356 75.669C53.0253 75.669 52.8258 75.4944 52.8258 75.1215L52.8386 75.0961L53.3613 71.6604H55.2535L55.8258 70.39H53.5354L53.9209 67.5946L52.1786 68.1516L51.8667 70.39H50.8587L50.6846 71.6604H51.8547C51.7429 72.2956 51.6304 71.8833 51.6184 72.0085L51.1699 75.0211C51.1451 75.1583 51.1451 75.2581 51.1451 75.3819C51.1451 76.5646 52.0166 77.0074 53.0634 77.0074C54.034 77.0074 54.8184 76.7241 55.4288 76.2127L54.6565 75.2625C54.2696 75.4988 54.0086 75.669 53.4356 75.669ZM59.5112 69.9047C57.2328 69.9047 56.1625 70.9871 55.8011 73.4395C55.7636 73.7387 55.7388 74.0252 55.7388 74.2989C55.7388 75.9796 56.5976 76.9883 58.4898 76.9883C59.959 76.9883 61.0553 76.3779 61.6397 75.2574L60.3827 74.7467C60.0219 75.2943 59.5359 75.6678 58.6765 75.6678C57.7562 75.6678 57.382 75.42 57.382 74.5981C57.382 74.4361 57.3954 74.2005 57.4201 74.2005H61.9141C61.9763 73.5653 62.0513 73.1162 62.0513 72.744C62.0513 71.4997 61.5781 69.9047 59.5112 69.9047ZM60.3706 72.9307H57.6317C57.9054 72.2956 58.3653 71.3123 59.3124 71.3123C60.0466 71.3123 60.4081 71.7417 60.4081 72.476C60.4074 72.6004 60.3954 72.9307 60.3706 72.9307ZM66.6329 69.9047C66.0352 69.9047 65.4749 70.2471 64.9147 70.7813L64.815 70.39H63.4462L62.487 77.377H64.1557L64.8899 71.9665C65.3257 71.7055 65.8237 71.4825 66.2969 71.4825C66.596 71.4825 66.8819 71.4349 67.1556 71.4724L67.3684 70.0286C67.1182 69.979 66.8692 69.9047 66.6329 69.9047ZM24.353 62.8446C20.5845 61.216 17.0579 57.0759 17.0497 52.8398C17.0395 48.2214 19.9664 44.3004 23.6067 41.7234C23.169 43.3768 22.9302 44.8892 24.0145 46.3679C25.0225 47.7431 26.7877 48.4113 28.4544 48.0486C32.3494 47.1962 32.5279 42.9144 30.219 40.42C27.9361 37.9498 25.7276 35.1594 26.5965 31.577C27.0316 29.7813 28.1343 28.0993 29.531 26.8969C28.4576 29.7184 31.5084 32.5012 33.5187 33.8872C37.0059 36.292 40.8316 38.1092 44.0381 40.9282C47.4109 43.8907 49.9015 47.8968 49.3984 52.5426C48.8534 57.5783 44.8517 61.0807 40.3635 62.8491C49.8481 60.7555 59.6484 53.3943 59.8491 42.875C60.0155 34.2213 54.0791 27.5613 46.7249 23.7483L46.3406 23.5387C46.5426 24.0284 46.6087 24.4451 46.601 24.818C46.6671 24.5429 46.7116 24.2603 46.7243 23.9687C46.7211 24.3314 46.6747 24.6738 46.5896 24.9952L46.601 24.818C46.4905 25.2848 46.305 25.7187 46.0567 26.1157L46.1647 25.9994C44.6974 28.4328 40.7256 28.9613 38.7635 26.4415C35.6091 22.3884 38.8295 18.0183 39.2799 13.7264C39.8439 8.34697 36.4705 3.12511 32.2878 0C34.5916 3.72663 31.5567 8.65695 29.1283 11.413C26.7737 14.0852 23.9103 16.316 21.3111 18.7437C18.5188 21.3511 15.8345 24.0977 13.5396 27.158C8.94977 33.2831 6.1397 40.9866 8.20469 48.6285C10.2684 56.2647 16.8832 61.1258 24.353 62.8446Z" fill="#EE4323"/>
</g>
<defs>
<clipPath id="clip0">
<rect width="67.3684" height="80" fill="white"/>
</clipPath>
</defs>
</svg>

<svg width="68" height="80" viewBox="0 0 68 80" fill="none" xmlns="http://www.w3.org/2000/svg"><g clip-path="url(#clip0)"><path d="M3.448 75.607c-1.369 0-1.767-.797-1.767-1.992 0-.398.05-.847.111-1.32.3-2.067 1.033-3.249 2.8-3.249 1.196 0 1.779.535 1.779 1.506v.473h1.186c.013 0 .013-.436.013-.535 0-1.419-.86-2.765-2.976-2.765-2.876 0-4.059 1.563-4.494 4.626-.063.41-.1.794-.1 1.204 0 1.805.71 3.447 3.25 3.447 1.93 0 3.075-.94 3.747-2.098l-1.133-.763c-.734 1.158-1.531 1.466-2.416 1.466zm7.782-5.702c-2.304 0-3.3 1.182-3.635 3.534a6.14 6.14 0 00-.063.823c0 1.518.71 2.726 2.676 2.726 2.304 0 3.313-1.233 3.649-3.549.037-.298.062-.572.062-.845 0-1.544-.734-2.69-2.689-2.69zm.959 3.535c-.25 1.706-.784 2.229-1.794 2.229-.808 0-1.206-.336-1.206-1.345 0-.249.025-.547.075-.884.249-1.693.747-2.215 1.767-2.215.822 0 1.232.336 1.232 1.356 0 .25-.025.536-.074.86zm7.52-5.59l-.385 2.285c-.025.198-.012.132.063.32-.36-.275-1.009-.456-1.444-.456-2.067 0-3.225.936-3.598 3.55-.05.312-.062.574-.062.835 0 1.906 1.12 2.616 2.626 2.616.636 0 1.258.013 1.743-.397l.124.774h1.195l1.395-9.528H19.71zm-1.182 7.458a2.856 2.856 0 01-1.443.41c-.909 0-1.158-.473-1.158-1.232 0-.286.037-.621.088-.984.285-1.979.92-2.328 1.743-2.328.534 0 .945.087 1.332.3l-.562 3.834zm6.474-5.403c-2.279 0-3.348 1.082-3.71 3.534-.038.3-.063.586-.063.86 0 1.68.86 2.69 2.752 2.69 1.469 0 2.565-.611 3.15-1.732l-1.258-.51c-.36.547-.846.92-1.705.92-.921 0-1.295-.247-1.295-1.069 0-.162.013-.397.038-.397h4.494c.063-.636.136-1.085.136-1.457 0-1.244-.472-2.84-2.538-2.84zm.86 3.026h-2.74c.275-.635.735-1.619 1.681-1.619.734 0 1.096.43 1.096 1.164 0 .124-.012.455-.038.455zm6.47-3.176l.15-1.27h-3.512l-.148 1.27h.92l-.994 6.352h-.923l-.148 1.27h3.51l.15-1.27h-.921l.995-6.352h.922zm7.135 1.905l.448-1.27h-1.207l-.87.18c-.487-.31-1.147-.544-1.769-.544-1.78 0-3.299.86-3.299 2.815 0 .548.199.991.435 1.29-.373.2-.697.532-.697.981a.94.94 0 00.225.589c-.748.449-1.207 1.193-1.207 2.064 0 1.68 1.755 2.04 3.1 2.04 1.692 0 3.71-.387 3.71-2.541 0-.734-.46-1.308-1.793-1.557l-2.403-.449c-.273-.05-.336-.137-.336-.262 0-.186.113-.285.3-.285l.161.024c.324.075.698.113 1.083.113 1.731 0 3.275-.748 3.275-2.69 0-.274-.05-.46-.174-.759.211.1.486.262.597.262h.421zm-3.423 5.154c.473.087.634.261.634.573 0 1.008-1.083 1.133-1.867 1.133-1.195 0-1.643-.286-1.643-.922 0-.56.161-.821.535-1.22l2.341.436zm-.511-3.261c-.723 0-1.12-.261-1.12-.885 0-.92.535-1.456 1.468-1.456.747 0 1.109.311 1.109.92 0 .922-.524 1.42-1.457 1.42zm8.357-3.648c-.698 0-1.32.342-2.092.951l-.112-.466h-1.37l-.958 6.987h1.656l.722-5.299c.486-.298 1.083-.732 1.594-.732.621 0 .846.3.846.873 0 .137-.013.543-.038.692l-.609 4.466h1.656l.61-4.502c.025-.211.05-.558.05-.757 0-1.184-.561-2.213-1.955-2.213zm5.1 5.721l.012-.17.722-5.066h-2.752l-.173 1.27h1.207c-.1 0-.162.112-.174.212l-.498 3.373c-.025.163-.037.5-.037.637 0 .871.473 1.495 1.443 1.495h.847l.187-1.27h-.535c-.188 0-.25-.331-.25-.48zm1.07-7.777h-1.618c-.1 0-.1-.366-.112-.242l-.225 1.79c-.013.113-.013.358.087.358h1.619c.1 0 .1-.435.112-.548l.225-1.382c.012-.124.012.024-.088.024zm3.377 7.82c-.41 0-.61-.175-.61-.547l.013-.026.522-3.436h1.893l.572-1.27h-2.29l.385-2.795-1.742.557-.312 2.238h-1.008l-.174 1.27h1.17c-.112.636-.225.223-.237.349l-.448 3.012c-.025.137-.025.237-.025.36 0 1.184.872 1.626 1.918 1.626.971 0 1.755-.283 2.366-.794l-.773-.95c-.386.236-.647.406-1.22.406zm6.075-5.764c-2.278 0-3.349 1.082-3.71 3.534-.037.3-.062.586-.062.86 0 1.68.859 2.69 2.75 2.69 1.47 0 2.566-.611 3.15-1.732l-1.256-.51c-.361.547-.847.92-1.707.92-.92 0-1.294-.247-1.294-1.069 0-.162.013-.397.038-.397h4.494c.062-.636.137-1.085.137-1.457 0-1.244-.473-2.84-2.54-2.84zm.86 3.026h-2.74c.274-.635.734-1.619 1.681-1.619.735 0 1.096.43 1.096 1.164 0 .124-.013.455-.037.455zm6.262-3.026c-.598 0-1.158.342-1.718.876l-.1-.391h-1.369l-.959 6.987h1.669l.734-5.41c.436-.261.934-.484 1.407-.484.299 0 .585-.048.859-.01l.212-1.444c-.25-.05-.499-.124-.735-.124zm-42.28-7.06c-3.769-1.629-7.295-5.77-7.303-10.005-.01-4.619 2.916-8.54 6.557-11.117-.438 1.654-.677 3.166.408 4.645a4.39 4.39 0 004.44 1.68c3.894-.852 4.073-5.134 1.764-7.628-2.283-2.47-4.491-5.26-3.623-8.843.436-1.796 1.538-3.478 2.935-4.68-1.073 2.821 1.977 5.604 3.988 6.99 3.487 2.405 7.313 4.222 10.52 7.041 3.372 2.963 5.862 6.969 5.36 11.615-.546 5.035-4.547 8.538-9.035 10.306 9.484-2.093 19.284-9.455 19.485-19.974.167-8.654-5.77-15.314-13.124-19.127l-.384-.21c.202.49.268.907.26 1.28a4.49 4.49 0 00.123-.85c-.003.363-.05.706-.134 1.027l.011-.177c-.11.467-.296.9-.544 1.298l.108-.117c-1.468 2.434-5.44 2.962-7.401.443-3.155-4.054.066-8.424.516-12.716.564-5.379-2.81-10.6-6.992-13.726 2.304 3.727-.731 8.657-3.16 11.413-2.354 2.672-5.218 4.903-7.817 7.33-2.792 2.608-5.476 5.355-7.771 8.415-4.59 6.125-7.4 13.829-5.335 21.47 2.063 7.637 8.678 12.498 16.148 14.217z" fill="#EE4323"/></g><defs><clipPath id="clip0"><path fill="#fff" d="M0 0h67.368v80H0z"/></clipPath></defs></svg>
